X:3000
T:Polska efter Brynte Olsson (Kull)
S:efter Brynte Kull
B:EÖ, nr 287
R:Polska
O:Boda, Skillingmarks sn, Värmland
Z:Nils L
L:1/8
M:3/4
%%tuplets 0 0 1
K:D
d>f a2 ab  | a>f (3gfg gb | g>f e>d (3cBc | dB A>G (3FEF |
!>!D> f a2 ab | !>!a z/f/ (3gfg (gb) | gf ed (3cBc | (3ABc d2 z2 ::
(3ABc d2 de | f>d dB B2 | g>f e>d PcB/c/ | d>B A>G PFE/F/ |
D [I:tuplets 0 0 0](3A/B/c/[I:tuplets 0 0 1] d2 d>e | f>d dB B2 | g>f e>d (3cBc | (3ABc d2 z2 :|
T:Variant av takt 4-5
dB A>G FA | !>!d> f a2 ab |
(:musicend:)

(:title Polska efter Brynte Olsson (Kull):)
(:music:)
